public/images/simulate_illustration.svg

<svg xmlns="http://www.w3.org/2000/svg" width="719.53003" height="455.36479" viewBox="0 0 719.53003 455.36479" xmlns:xlink="http://www.w3.org/1999/xlink">
<path d="M602.46002,35.65002H.67004c.84998-4.82001,2.50995-9.38,4.82996-13.51001C12.91003,8.94,27.04004,0,43.23004,0H559.90002c16.17999,0,30.32001,8.94,37.71997,22.14001,2.32001,4.13,3.98999,8.69,4.84003,13.51001Z" fill="#f2f2f2"/><path d="M719.53003,453.70001c0,.65997-.53003,1.19-1.19,1.19h-247.29004c-.65997,0-1.19-.53003-1.19-1.19,0-.32001,.12006-.60004,.32001-.81h89.72003c1.90997,0,3.77997-.13,5.62-.38h152.82001c.65997,0,1.19,.52997,1.19,1.19Z" fill="#3f3d56"/><path d="M442.21848,211.14001H160.9045c-2.61448,0-4.74125-2.69141-4.74125-6s2.12677-6,4.74125-6H442.21848c2.61448,0,4.74125,2.69141,4.74125,6s-2.12677,6-4.74125,6Z" fill="#e6e6e6"/><path d="M602.46002,35.65002c-.85004-4.82001-2.52002-9.38-4.84003-13.51001-7.39996-13.20001-21.53998-22.14001-37.71997-22.14001H43.23004C27.04004,0,12.91003,8.94,5.5,22.14001c-2.32001,4.13-3.97998,8.69-4.82996,13.51001-.44,2.45996-.67004,4.98999-.67004,7.57996V411.65997c0,23.84003,19.39001,43.23004,43.23004,43.23004H559.90002c4.94,0,9.70001-.84003,14.13-2.38,16.91998-5.85999,29.09998-21.96002,29.09998-40.85004V43.22998c0-2.57996-.22998-5.12-.66998-7.57996Zm-1.33002,376.00995c0,20.86005-15.5,38.11005-35.60999,40.85004-1.84003,.25-3.71002,.38-5.62,.38H104.64001c-56.69,0-102.64001-45.96002-102.64001-102.65002V43.22998c0-2.58997,.23999-5.12,.70001-7.57996,.90002-4.86005,2.65002-9.41003,5.09998-13.51001C14.98999,10.08002,28.17004,2,43.23004,2H559.90002c15.06,0,28.23999,8.08002,35.42999,20.14001,2.45001,4.09998,4.20001,8.64996,5.09998,13.51001,.46002,2.45996,.70001,4.98999,.70001,7.57996V411.65997Z" fill="#3f3d56"/><g><polygon points="575.92615 216.07954 572.54224 203.67191 587.76978 198.03206 589.46173 209.31174 575.92615 216.07954" fill="#ffb6b6"/><polygon points="575.92615 216.07954 572.54224 203.67191 581.50995 199.88928 578.72382 214.51666 575.92615 216.07954" opacity=".1"/><g><path d="M531.34949,322.41742c-2.90851-1.73047-3.06195-6.83838-.34259-11.409,1.19037-2.00073,2.73395-3.56665,4.33728-4.55005l1.59692-2.60913,20.20197-36.21606s8.8432-34.15634,12.44342-38.28615c3.60022-4.12978,8.8056-3.15675,8.8056-3.15675l4.61713,4.10103-16.47906,48.37749-20.33563,28.63821-2.72534,3.98544c-.09937,1.87823-.73907,3.9819-1.92957,5.98254-2.7193,4.57059-7.28156,6.87289-10.19012,5.1424v.00003Z" fill="#ffb6b6"/><path d="M575.09344,212.53549s6.4256-.24847,10.47974,4.74292-17.18488,61.24887-17.18488,61.24887l-17.29956-.61243,24.00464-65.37936h.00006Z" fill="#c38787"/></g><circle cx="576.77209" cy="189.85429" r="15.79156" fill="#ffb6b6"/><polygon points="539.83118 419.11371 529.11548 445.62097 522.91168 439.41714 520.6557 427.57349 529.67944 416.29379 539.83118 419.11371" fill="#ffb6b6"/><polygon points="640.22028 409.526 650.93597 421.93365 645.86017 432.08536 634.58044 430.3934 628.94061 414.60184 640.22028 409.526" fill="#ffb6b6"/><polygon points="568.87634 261.48026 567.46637 284.32159 602.43335 278.11777 600.17743 264.01816 568.87634 261.48026" fill="#ffb6b6"/><path d="M567.18439,284.60358l35.24896-11.56168s12.97162,25.94327-1.12799,42.2988-60.91028,109.41284-60.91028,109.41284l-14.09961-6.76782,20.30341-59.21829,22.55933-54.70642-1.97394-19.45743h.00012Z" fill="#2f2e41"/><polygon points="601.30542 305.75296 614.841 364.97128 643.04022 410.65396 628.37665 419.11371 588.89777 364.97128 575.92615 323.23648 601.30542 305.75296" fill="#2f2e41"/><path d="M515.57989,425.31754h-9.76758s-11.39737-4.51187-14.06851,0,11.91803,17.30807,11.91803,17.30807c0,0,20.37778,11.45508,23.19772,10.89111s3.94788-7.33179,3.94788-7.33179l3.38391-7.89578-5.07587,1.69196s-6.76782-3.94788-5.07587-10.7157l-8.45978-3.94788h.00006Z" fill="#2f2e41"/><path d="M648.68005,423.62558v-5.63983l6.55688,5.63983s10.92664,3.94788,2.46686,12.40765c-8.45978,8.45975-19.17548,17.48349-19.17548,17.48349,0,0-16.91949,4.51187-18.04749-.56396s0-7.12973,0-7.12973l6.2038-3.02197,5.63983-14.66357,9.02374,1.12796,7.33179-5.63983,.00006-.00003Z" fill="#2f2e41"/><path d="M581.56598,192.95621l-5.07587-.56398-9.30573-9.30573s-8.45978,4.51187-8.45978,1.12798c0-15.79155,9.58771-15.22755,17.48352-16.35553,7.89575-1.12798,7.0498-1.40996,9.58771,2.81992,1.16064,1.93445,5.35785,3.10191,5.35785,3.10191,0,0,7.89575-10.71568,11.84369,2.25594,3.94788,12.97163-1.12799,53.01448,2.81995,56.39838,3.94788,3.3839-16.21002,6.76279-14.02686-6.48833s6.13104-33.55453,3.87512-38.06639c-2.25592-4.51187-2.81995-3.3839-2.81995-3.3839,2.79572-1.14146,4.62238,18.96437-5.91864,19.94879l-.28522-9.79707s-1.69196-5.07585-5.07587-1.69196l.00006-.00003Z" fill="#2f2e41"/><path d="M574.51617,212.41365l16.91949-6.76781,22.55933,67.67807-46.41595-1.69077-4.17926-20.19972s-4.08044-10.51318-.69653-16.71701,11.81287-22.30273,11.81287-22.30273l.00006-.00003Z" fill="#c38787"/><g><path d="M618.54346,325.78308c-3.37201,.28961-6.47443-3.77103-6.92957-9.06995-.19928-2.31952,.14203-4.49167,.87134-6.2254l-.22357-3.05087-4.69946-41.20236s-8.74829-33.703-8.23071-39.1573c.51752-5.45422,1.33484-6.90227,1.33484-6.90227l6.14215,.64035,14.81415,48.91302,.1731,35.12344,.10913,4.82693c1.01428,1.58395,1.72089,3.66611,1.91998,5.9856,.4552,5.29886-1.90942,9.82916-5.28137,10.11877v.00003Z" fill="#ffb6b6"/><path d="M590.02576,211.00369s5.07587-3.94789,11.27966-2.25594,21.74445,59.7823,21.74445,59.7823l-14.41266,9.58771-18.61145-67.11407Z" fill="#c38787"/></g></g><path d="M296.20544,308.64001h-67.65576c-4.12891,0-7.48828-3.35938-7.48828-7.48828v-6.7666c0-4.12891,3.35938-7.4873,7.48828-7.4873h67.65576c4.12891,0,7.48828,3.3584,7.48828,7.4873v6.7666c0,4.12891-3.35938,7.48828-7.48828,7.48828Z" fill="#c38787"/><path d="M556.20544,87.51111h-67.65576c-4.12891,0-7.48828-3.35938-7.48828-7.48828v-6.7666c0-4.12891,3.35938-7.4873,7.48828-7.4873h67.65576c4.12891,0,7.48828,3.3584,7.48828,7.4873v6.7666c0,4.12891-3.35938,7.48828-7.48828,7.48828Z" fill="#c38787"/><path d="M396.57312,309.14001h-67.65576c-4.40479,0-7.98828-3.58398-7.98828-7.98828v-6.7666c0-4.4043,3.5835-7.9873,7.98828-7.9873h67.65576c4.40479,0,7.98828,3.58301,7.98828,7.9873v6.7666c0,4.4043-3.5835,7.98828-7.98828,7.98828Zm-67.65576-20.74219c-3.30176,0-5.98828,2.68555-5.98828,5.9873v6.7666c0,3.30176,2.68652,5.98828,5.98828,5.98828h67.65576c3.30176,0,5.98828-2.68652,5.98828-5.98828v-6.7666c0-3.30176-2.68652-5.9873-5.98828-5.9873h-67.65576Z" fill="#c38787"/><path d="M479.56149,180.14001H123.56149c-3.30859,0-6-2.69141-6-6s2.69141-6,6-6H479.56149c3.30859,0,6,2.69141,6,6s-2.69141,6-6,6Z" fill="#e6e6e6"/><path d="M100.89001,82.64001H55.89001c-3.30859,0-6-2.69141-6-6s2.69141-6,6-6h45c3.30859,0,6,2.69141,6,6s-2.69141,6-6.00001,6Z" fill="#e6e6e6"/><path d="M369.89001,82.64001h-45c-3.30859,0-6-2.69141-6-6s2.69141-6,6-6h45c3.30859,0,6,2.69141,6,6s-2.69141,6-6,6Z" fill="#e6e6e6"/><path d="M454.89001,82.64001h-45c-3.30859,0-6-2.69141-6-6s2.69141-6,6-6h45c3.30859,0,6,2.69141,6,6s-2.69141,6-6,6Z" fill="#e6e6e6"/><path d="M400.56149,242.14001H202.56149c-3.30859,0-6-2.69141-6-6s2.69141-6,6-6h198c3.30859,0,6,2.69141,6,6s-2.69141,6-6,6Z" fill="#e6e6e6"/><path d="M409.18938,373.39584H193.93359c-2.00055,0-3.62791-1.62735-3.62791-3.6279s1.62737-3.6279,3.62791-3.6279h215.25583c2.00055,0,3.6279,1.62735,3.6279,3.6279s-1.62735,3.6279-3.6279,3.6279h-.00003Z" fill="#e6e6e6"/><path d="M411.1929,21.39583H195.9371c-2.00055,0-3.62791-1.62736-3.62791-3.62791s1.62737-3.62791,3.62791-3.62791h215.25583c2.00055,0,3.6279,1.62736,3.6279,3.62791s-1.62735,3.62791-3.6279,3.62791h-.00003Z" fill="#fff"/></svg>

<svg width="720" height="456" viewBox="0 0 720 456" fill="none" xmlns="http://www.w3.org/2000/svg">
<g clip-path="url(#clip0_0_1)">
<path d="M602.46 35.65H0.670044C1.52002 30.83 3.17999 26.27 5.5 22.14C12.91 8.94 27.04 0 43.23 0H559.9C576.08 0 590.22 8.94 597.62 22.14C599.94 26.27 601.61 30.83 602.46 35.65Z" fill="#F2F2F2"/>
<path d="M719.53 453.7C719.53 454.36 719 454.89 718.34 454.89H471.05C470.39 454.89 469.86 454.36 469.86 453.7C469.86 453.38 469.98 453.1 470.18 452.89H559.9C561.81 452.89 563.68 452.76 565.52 452.51H718.34C719 452.51 719.53 453.04 719.53 453.7Z" fill="#3F3D56"/>
<path d="M442.219 211.14H160.905C158.29 211.14 156.163 208.449 156.163 205.14C156.163 201.831 158.29 199.14 160.905 199.14H442.219C444.833 199.14 446.96 201.831 446.96 205.14C446.96 208.449 444.833 211.14 442.219 211.14Z" fill="#E6E6E6"/>
<path d="M602.46 35.65C601.61 30.83 599.94 26.27 597.62 22.14C590.22 8.94 576.08 0 559.9 0H43.23C27.04 0 12.91 8.94 5.5 22.14C3.17999 26.27 1.52002 30.83 0.67004 35.65C0.23004 38.11 0 40.64 0 43.23V411.66C0 435.5 19.39 454.89 43.23 454.89H559.9C564.84 454.89 569.6 454.05 574.03 452.51C590.95 446.65 603.13 430.55 603.13 411.66V43.23C603.13 40.65 602.9 38.11 602.46 35.65ZM601.13 411.66C601.13 432.52 585.63 449.77 565.52 452.51C563.68 452.76 561.81 452.89 559.9 452.89H104.64C47.95 452.89 2 406.93 2 350.24V43.23C2 40.64 2.23999 38.11 2.70001 35.65C3.60003 30.79 5.35003 26.24 7.79999 22.14C14.99 10.08 28.17 2 43.23 2H559.9C574.96 2 588.14 10.08 595.33 22.14C597.78 26.24 599.53 30.79 600.43 35.65C600.89 38.11 601.13 40.64 601.13 43.23V411.66Z" fill="#3F3D56"/>
<path d="M575.926 216.08L572.542 203.672L587.77 198.032L589.462 209.312L575.926 216.08Z" fill="#FFB6B6"/>
<path opacity="0.1" d="M575.926 216.08L572.542 203.672L581.51 199.889L578.724 214.517L575.926 216.08Z" fill="black"/>
<path d="M531.35 322.417C528.441 320.687 528.288 315.579 531.007 311.008C532.197 309.008 533.741 307.442 535.344 306.458L536.941 303.849L557.143 267.633C557.143 267.633 565.986 233.477 569.587 229.347C573.187 225.217 578.392 226.19 578.392 226.19L583.009 230.291L566.53 278.669L546.195 307.307L543.469 311.292C543.37 313.171 542.73 315.274 541.54 317.275C538.82 321.846 534.258 324.148 531.35 322.417Z" fill="#FFB6B6"/>
<path d="M575.093 212.535C575.093 212.535 581.519 212.287 585.573 217.278C589.627 222.27 568.388 278.527 568.388 278.527L551.089 277.915L575.093 212.535Z" fill="#C38787"/>
<path d="M576.772 205.646C585.494 205.646 592.564 198.576 592.564 189.854C592.564 181.133 585.494 174.063 576.772 174.063C568.051 174.063 560.981 181.133 560.981 189.854C560.981 198.576 568.051 205.646 576.772 205.646Z" fill="#FFB6B6"/>
<path d="M539.831 419.114L529.115 445.621L522.912 439.417L520.656 427.573L529.679 416.294L539.831 419.114Z" fill="#FFB6B6"/>
<path d="M640.22 409.526L650.936 421.934L645.86 432.085L634.58 430.393L628.941 414.602L640.22 409.526Z" fill="#FFB6B6"/>
<path d="M568.876 261.48L567.466 284.322L602.433 278.118L600.177 264.018L568.876 261.48Z" fill="#FFB6B6"/>
<path d="M567.184 284.604L602.433 273.042C602.433 273.042 615.405 298.985 601.305 315.341C587.206 331.696 540.395 424.754 540.395 424.754L526.295 417.986L546.599 358.767L569.158 304.061L567.184 284.604Z" fill="#2F2E41"/>
<path d="M601.305 305.753L614.841 364.971L643.04 410.654L628.377 419.114L588.898 364.971L575.926 323.236L601.305 305.753Z" fill="#2F2E41"/>
<path d="M515.58 425.318H505.812C505.812 425.318 494.415 420.806 491.744 425.318C489.073 429.829 503.662 442.626 503.662 442.626C503.662 442.626 524.04 454.081 526.86 453.517C529.68 452.953 530.807 446.185 530.807 446.185L534.191 438.289L529.115 439.981C529.115 439.981 522.348 436.033 524.04 429.265L515.58 425.318Z" fill="#2F2E41"/>
<path d="M648.68 423.626V417.986L655.237 423.626C655.237 423.626 666.164 427.573 657.704 436.033C649.244 444.493 638.528 453.517 638.528 453.517C638.528 453.517 621.609 458.029 620.481 452.953C619.353 447.877 620.481 445.823 620.481 445.823L626.685 442.801L632.324 428.137L641.348 429.265L648.68 423.626Z" fill="#2F2E41"/>
<path d="M581.566 192.956L576.49 192.392L567.184 183.087C567.184 183.087 558.725 187.598 558.725 184.214C558.725 168.423 568.312 168.987 576.208 167.859C584.104 166.731 583.258 166.449 585.796 170.679C586.956 172.613 591.154 173.781 591.154 173.781C591.154 173.781 599.049 163.065 602.997 176.037C606.945 189.008 601.869 229.051 605.817 232.435C609.765 235.819 589.607 239.198 591.79 225.947C593.974 212.696 597.922 192.392 595.666 187.88C593.41 183.369 592.846 184.496 592.846 184.496C595.641 183.355 597.468 203.461 586.927 204.445L586.642 194.648C586.642 194.648 584.95 189.572 581.566 192.956Z" fill="#2F2E41"/>
<path d="M574.516 212.414L591.436 205.646L613.995 273.324L567.579 271.633L563.4 251.433C563.4 251.433 559.319 240.92 562.703 234.716C566.087 228.513 574.516 212.414 574.516 212.414Z" fill="#C38787"/>
<path d="M618.543 325.783C615.171 326.073 612.069 322.012 611.614 316.713C611.415 314.394 611.756 312.221 612.485 310.488L612.262 307.437L607.562 266.234C607.562 266.234 598.814 232.531 599.331 227.077C599.849 221.623 600.666 220.175 600.666 220.175L606.808 220.815L621.623 269.728L621.796 304.852L621.905 309.679C622.919 311.263 623.626 313.345 623.825 315.664C624.28 320.963 621.915 325.493 618.543 325.783Z" fill="#FFB6B6"/>
<path d="M590.026 211.004C590.026 211.004 595.102 207.056 601.305 208.748C607.509 210.44 623.05 268.53 623.05 268.53L608.637 278.118L590.026 211.004Z" fill="#C38787"/>
<path d="M296.205 308.64H228.55C224.421 308.64 221.061 305.281 221.061 301.152V294.385C221.061 290.256 224.421 286.898 228.55 286.898H296.205C300.334 286.898 303.694 290.256 303.694 294.385V301.152C303.694 305.281 300.334 308.64 296.205 308.64Z" fill="#C38787"/>
<path d="M556.205 87.5111H488.55C484.421 87.5111 481.061 84.1517 481.061 80.0228V73.2562C481.061 69.1273 484.421 65.7689 488.55 65.7689H556.205C560.334 65.7689 563.694 69.1273 563.694 73.2562V80.0228C563.694 84.1517 560.334 87.5111 556.205 87.5111Z" fill="#C38787"/>
<path d="M396.573 309.14H328.917C324.513 309.14 320.929 305.556 320.929 301.152V294.385C320.929 289.981 324.513 286.398 328.917 286.398H396.573C400.978 286.398 404.561 289.981 404.561 294.385V301.152C404.561 305.556 400.978 309.14 396.573 309.14ZM328.917 288.398C325.616 288.398 322.929 291.083 322.929 294.385V301.152C322.929 304.453 325.616 307.14 328.917 307.14H396.573C399.875 307.14 402.561 304.453 402.561 301.152V294.385C402.561 291.083 399.875 288.398 396.573 288.398H328.917Z" fill="#C38787"/>
<path d="M479.561 180.14H123.561C120.253 180.14 117.561 177.449 117.561 174.14C117.561 170.831 120.253 168.14 123.561 168.14H479.561C482.87 168.14 485.561 170.831 485.561 174.14C485.561 177.449 482.87 180.14 479.561 180.14Z" fill="#E6E6E6"/>
<path d="M100.89 82.64H55.89C52.5814 82.64 49.89 79.9486 49.89 76.64C49.89 73.3314 52.5814 70.64 55.89 70.64H100.89C104.199 70.64 106.89 73.3314 106.89 76.64C106.89 79.9486 104.199 82.64 100.89 82.64Z" fill="#E6E6E6"/>
<path d="M369.89 82.64H324.89C321.581 82.64 318.89 79.9486 318.89 76.64C318.89 73.3314 321.581 70.64 324.89 70.64H369.89C373.199 70.64 375.89 73.3314 375.89 76.64C375.89 79.9486 373.199 82.64 369.89 82.64Z" fill="#E6E6E6"/>
<path d="M454.89 82.64H409.89C406.581 82.64 403.89 79.9486 403.89 76.64C403.89 73.3314 406.581 70.64 409.89 70.64H454.89C458.199 70.64 460.89 73.3314 460.89 76.64C460.89 79.9486 458.199 82.64 454.89 82.64Z" fill="#E6E6E6"/>
<path d="M400.561 242.14H202.561C199.253 242.14 196.561 239.449 196.561 236.14C196.561 232.831 199.253 230.14 202.561 230.14H400.561C403.87 230.14 406.561 232.831 406.561 236.14C406.561 239.449 403.87 242.14 400.561 242.14Z" fill="#E6E6E6"/>
<path d="M409.189 373.396H193.934C191.933 373.396 190.306 371.768 190.306 369.768C190.306 367.767 191.933 366.14 193.934 366.14H409.189C411.19 366.14 412.817 367.767 412.817 369.768C412.817 371.768 411.19 373.396 409.189 373.396Z" fill="#E6E6E6"/>
<path d="M411.193 21.3958H195.937C193.937 21.3958 192.309 19.7685 192.309 17.7679C192.309 15.7674 193.937 14.14 195.937 14.14H411.193C413.193 14.14 414.821 15.7674 414.821 17.7679C414.821 19.7685 413.193 21.3958 411.193 21.3958Z" fill="white"/>
<g clip-path="url(#clip1_0_1)">
<path fill-rule="evenodd" clip-rule="evenodd" d="M104.234 343.89C106.669 338.097 106.885 332.203 104.884 326.21C103.613 323.236 102.14 320.376 100.464 317.63C94.9582 310.129 89.7582 302.417 84.8637 294.49C81.9124 289.056 79.8756 283.336 78.7537 277.33C78.2893 268.298 81.4527 260.843 88.2437 254.97C87.5612 257.528 86.9543 260.128 86.4237 262.77C85.9411 267.286 86.3745 271.706 87.7237 276.03C89.0962 279.467 90.7428 282.761 92.6637 285.91C97.7329 293.273 102.673 300.727 107.484 308.27C110.128 312.911 111.948 317.851 112.944 323.09C114.241 332.463 111.207 340.089 103.844 345.97C103.731 345.211 103.861 344.517 104.234 343.89Z" fill="#F5BFAB"/>
<path fill-rule="evenodd" clip-rule="evenodd" d="M78.7536 277.33C79.8755 283.336 81.9124 289.056 84.8636 294.49C89.7581 302.417 94.9581 310.129 100.464 317.63C102.14 320.376 103.613 323.236 104.884 326.21C106.885 332.203 106.669 338.097 104.234 343.89C105.556 338.295 104.819 333.009 102.024 328.03C100.304 325.529 98.4837 323.103 96.5636 320.75C90.8624 315.051 85.7489 308.899 81.2236 302.29C77.2987 296.245 75.8255 289.659 76.8036 282.53C77.2394 280.707 77.8894 278.973 78.7536 277.33Z" fill="#BF6155"/>
<path d="M62.733 323.976L75.0239 303.531L87.3148 323.976H62.733Z" fill="#394048"/>
<path d="M92.2461 269.321L102.41 251.358L143.537 324.158L122.973 324.394L92.2461 269.321Z" fill="#394048" stroke="black"/>
</g>
</g>
<defs>
<clipPath id="clip0_0_1">
<rect width="719.53" height="455.365" fill="white"/>
</clipPath>
<clipPath id="clip1_0_1">
<rect width="104" height="104" fill="white" transform="translate(50 246)"/>
</clipPath>
</defs>
</svg>
